ps2/_inc/system.svg

<svg xmlns="http://www.w3.org/2000/svg"><g fill="#fff"><path d="m152.385 139.422v36.396h5.682v-32.901h5.262s3.816-.018 5.127 1.698c1.107 1.455 1.308 4.083 1.308 5.862 0 1.908-.114 4.842-.759 5.922-.966 1.641-2.55 1.968-4.011 1.968h-3.471v3.225h4.986s4.503.198 6.447-1.773c2.373-2.424 2.973-5.661 2.973-9.999 0-3.954-1.428-7.932-4.356-9.273-2.421-1.125-6.789-1.125-6.789-1.125z"/><path d="m180.39 175.818h5.694v-36.396h-5.694z"/><path d="m216.282 147.9 10.395 27.246-5.964 14.604h4.713l17.175-41.85h-5.259l-7.485 20.4-6.966-20.4z"/><path d="m246.882 175.581v-3.432s6.006.234 7.254.234c2.775 0 4.155-.594 5.193-1.701.618-.663 1.176-3.639 1.176-4.692 0-1.068-.198-3.348-.612-4.275-.426-.918-1.392-1.773-2.85-1.89-1.029-.096-2.637-.294-4.5-.384-2.622-.12-4.356-1.497-5.196-2.472-.822-.993-1.935-2.457-1.935-7.017 0-4.536 1.176-7.074 2.349-8.262 1.185-1.185 2.913-1.704 4.233-1.935 1.515-.267 4.011-.285 4.011-.285l7.956.237v3.435s-5.805-.225-7.05-.225c-2.775 0-3.606.585-4.647 1.698-.606.672-1.086 2.502-1.086 3.564 0 1.047.123 3.177.534 4.095.417.927 1.389 1.773 2.838 1.905 1.029.075 2.64.285 4.503.378 2.634.129 4.365 1.488 5.193 2.478.831.99 1.944 3.069 1.944 7.608s-1.182 7.782-2.358 8.952c-1.176 1.197-2.901 1.719-4.224 1.947-1.524.276-4.02.276-4.02.276z"/><path d="m277.866 142.917h-5.676v26.7s.138 2.436.273 3.285c.144.861 1.392 2.91 4.644 2.91l5.886-.126v-3.426s-1.602.12-2.559.12c-.975 0-2.16-.072-2.361-1.725-.21-1.632-.21-3.606-.21-3.606v-15.723h6.411v-3.426h-6.411z"/><path d="m332.661 175.818h5.682v-27.918h-5.682z"/><path d="m332.661 144.489h5.682v-5.067h-5.682z"/><path d="m356.289 147.669c3.864 0 6.861.87 8.472 2.172 1.623 1.308 3.618 4.053 3.618 12.015 0 7.965-1.995 10.704-3.618 12.027-1.611 1.302-4.608 2.169-8.472 2.169-3.873 0-6.861-.867-8.478-2.169-1.617-1.323-3.612-4.062-3.612-12.027 0-7.959 1.995-10.704 3.612-12.015 1.617-1.299 4.605-2.172 8.478-2.172zm-3.885 5.355c-.786.957-1.734 2.988-1.734 8.832 0 5.862.948 7.875 1.734 8.832.771.954 2.202 1.602 4.062 1.602 1.866 0 3.291-.645 4.083-1.602.774-.954 1.731-2.97 1.731-8.832 0-5.844-.954-7.872-1.731-8.832-.792-.954-2.22-1.59-4.083-1.59-1.86 0-3.294.636-4.062 1.59z"/><path d="m380.148 151.833 5.562-.24c1.464 0 3.171.396 3.999 1.443.78.996 1.266 2.175 1.266 4.083v18.654h5.685v-19.119c0-3.618-1.11-5.712-2.781-7.032-2.385-1.893-6.645-1.725-6.645-1.725l-12.732.243v27.63h5.646z"/><path d="m321.372 142.917h-5.688v26.7s.135 2.436.276 3.285c.138.861 1.377 2.91 4.635 2.91l5.892-.126v-3.426s-1.599.12-2.565.12c-.96 0-2.148-.072-2.355-1.725-.198-1.632-.198-3.606-.198-3.606v-15.723h6.393v-3.426h-6.393v-4.983z"/><path d="m207.624 157.122c0-1.908-.489-3.087-1.266-4.083-.831-1.047-2.547-1.44-4.005-1.44l-7.491.237v-3.69l9.021-.243s4.263-.168 6.648 1.725c1.659 1.317 2.775 3.414 2.775 7.032v18.852l-10.887.234s-4.935.024-7.41-.99c-2.424-.984-3.744-3.687-3.744-7.431 0-3.615 1.113-5.727 2.775-7.047 2.388-1.887 6.642-1.704 6.642-1.704h3.48v3.225h-1.953c-1.455 0-2.958.27-3.786 1.308-.786.999-1.2 1.851-1.2 3.759 0 2.499.486 3.621 1.662 4.473 1.038.756 2.901.921 4.986.921l3.753-.234z"/><path d="m303.381 157.122c0-1.908-.477-3.087-1.257-4.083-.837-1.047-2.547-1.44-4.002-1.44l-7.485.237v-3.69l9.003-.243s4.266-.168 6.651 1.725c1.662 1.317 2.766 3.414 2.766 7.032v18.852l-10.872.234s-4.935.024-7.422-.99c-2.412-.984-3.738-3.687-3.738-7.431 0-3.615 1.119-5.727 2.772-7.047 2.388-1.887 6.654-1.704 6.654-1.704h3.468v3.225h-1.95c-1.446 0-2.964.27-3.789 1.308-.777.999-1.2 1.851-1.2 3.759 0 2.499.498 3.621 1.662 4.473 1.038.756 2.91.921 4.989.921l3.75-.234z"/><path d="m447.603 144.129c.072 4.194-.132 6.402-1.542 8.499-1.242 1.845-3.702 3.525-9.138 3.525l-6.744-.198c-1.068.018-3.819.33-5.124 1.725-1.116 1.206-1.203 2.109-1.317 5.319v9.417h22.923v4.611h-25.059l-1.203-.009c-1.704 0-3.378-1.155-3.378-3.468v-7.023c.12-8.205.708-9.381 2.49-11.532 1.236-1.488 4.14-3.153 7.662-3.33.693-.03 1.995-.12 3.825-.069 1.332.06 2.664.096 3.249.108 3.123.03 4.26-.546 5.115-1.662.975-1.26 1.5-2.748 1.5-5.184 0-2.28-.468-4.431-1.338-5.43-1.053-1.155-2.061-1.929-4.992-1.929-7.416-.018-16.068.177-16.068.177v-4.356s8.457-.36 17.082-.486c5.37-.093 8.331 1.335 9.837 3.3 1.59 2.046 2.148 3.981 2.22 7.995z"/><path d="m592.596 7.395v40.641h-179.52v55.428h186.924v-7.392h-179.526v-40.641h179.526v-55.431h-186.924v7.395z"/><path d="m385.374 0v7.395h-95.349v96.069h-103.101v-7.392h95.349v-96.072z"/><path d="m7.395 103.464v-48.033h179.529v-55.431h-186.924v7.275l179.535.12v40.641h-179.535v55.428z"/></g></svg>

<?xml version="1.0" encoding="utf-8"?>
<svg version="1.1" xmlns="http://www.w3.org/2000/svg">
  <g>
    <path id="path788" d="M 152.385 139.422 L 152.385 175.818 L 158.067 175.818 L 158.067 142.917 L 163.329 142.917 C 163.329 142.917 167.145 142.899 168.456 144.615 C 169.563 146.07 169.764 148.698 169.764 150.477 C 169.764 152.385 169.65 155.319 169.005 156.399 C 168.039 158.04 166.455 158.367 164.994 158.367 L 161.523 158.367 L 161.523 161.592 L 166.509 161.592 C 166.509 161.592 171.012 161.79 172.956 159.819 C 175.329 157.395 175.929 154.158 175.929 149.82 C 175.929 145.866 174.501 141.888 171.573 140.547 C 169.152 139.422 164.784 139.422 164.784 139.422 L 152.385 139.422 L 152.385 139.422 Z" style="fill: rgb(255, 255, 255);"/>
    <polygon id="polygon790" points="180.39 175.818 186.084 175.818 186.084 139.422 180.39 139.422" style="fill: rgb(255, 255, 255);"/>
    <polygon id="polygon792" points="216.282 147.9 226.677 175.146 220.713 189.75 225.426 189.75 242.601 147.9 237.342 147.9 229.857 168.3 222.891 147.9" style="fill: rgb(255, 255, 255);"/>
    <path id="path794" d="M 246.882 175.581 L 246.882 172.149 C 246.882 172.149 252.888 172.383 254.136 172.383 C 256.911 172.383 258.291 171.789 259.329 170.682 C 259.947 170.019 260.505 167.043 260.505 165.99 C 260.505 164.922 260.307 162.642 259.893 161.715 C 259.467 160.797 258.501 159.942 257.043 159.825 C 256.014 159.729 254.406 159.531 252.543 159.441 C 249.921 159.321 248.187 157.944 247.347 156.969 C 246.525 155.976 245.412 154.512 245.412 149.952 C 245.412 145.416 246.588 142.878 247.761 141.69 C 248.946 140.505 250.674 139.986 251.994 139.755 C 253.509 139.488 256.005 139.47 256.005 139.47 L 263.961 139.707 L 263.961 143.142 C 263.961 143.142 258.156 142.917 256.911 142.917 C 254.136 142.917 253.305 143.502 252.264 144.615 C 251.658 145.287 251.178 147.117 251.178 148.179 C 251.178 149.226 251.301 151.356 251.712 152.274 C 252.129 153.201 253.101 154.047 254.55 154.179 C 255.579 154.254 257.19 154.464 259.053 154.557 C 261.687 154.686 263.418 156.045 264.246 157.035 C 265.077 158.025 266.19 160.104 266.19 164.643 C 266.19 169.182 265.008 172.425 263.832 173.595 C 262.656 174.792 260.931 175.314 259.608 175.542 C 258.084 175.818 255.588 175.818 255.588 175.818 L 246.882 175.581 L 246.882 175.581 Z" style="fill: rgb(255, 255, 255);"/>
    <path id="path796" d="M 277.866 142.917 L 272.19 142.917 L 272.19 169.617 C 272.19 169.617 272.328 172.053 272.463 172.902 C 272.607 173.763 273.855 175.812 277.107 175.812 L 282.993 175.686 L 282.993 172.26 C 282.993 172.26 281.391 172.38 280.434 172.38 C 279.459 172.38 278.274 172.308 278.073 170.655 C 277.863 169.023 277.863 167.049 277.863 167.049 L 277.863 151.326 L 284.274 151.326 L 284.274 147.9 L 277.863 147.9 L 277.866 142.917 L 277.866 142.917 Z" style="fill: rgb(255, 255, 255);"/>
    <polygon id="polygon798" points="332.661 175.818 338.343 175.818 338.343 147.9 332.661 147.9" style="fill: rgb(255, 255, 255);"/>
    <polygon id="polygon800" points="332.661 144.489 338.343 144.489 338.343 139.422 332.661 139.422" style="fill: rgb(255, 255, 255);"/>
    <path id="path802" d="M 356.289 147.669 C 360.153 147.669 363.15 148.539 364.761 149.841 C 366.384 151.149 368.379 153.894 368.379 161.856 C 368.379 169.821 366.384 172.56 364.761 173.883 C 363.15 175.185 360.153 176.052 356.289 176.052 C 352.416 176.052 349.428 175.185 347.811 173.883 C 346.194 172.56 344.199 169.821 344.199 161.856 C 344.199 153.897 346.194 151.152 347.811 149.841 C 349.428 148.542 352.416 147.669 356.289 147.669 Z M 352.404 153.024 C 351.618 153.981 350.67 156.012 350.67 161.856 C 350.67 167.718 351.618 169.731 352.404 170.688 C 353.175 171.642 354.606 172.29 356.466 172.29 C 358.332 172.29 359.757 171.645 360.549 170.688 C 361.323 169.734 362.28 167.718 362.28 161.856 C 362.28 156.012 361.326 153.984 360.549 153.024 C 359.757 152.07 358.329 151.434 356.466 151.434 C 354.606 151.434 353.172 152.07 352.404 153.024 Z" style="fill: rgb(255, 255, 255);"/>
    <path id="path804" d="M 380.148 151.833 L 385.71 151.593 C 387.174 151.593 388.881 151.989 389.709 153.036 C 390.489 154.032 390.975 155.211 390.975 157.119 L 390.975 175.773 L 396.66 175.773 L 396.66 156.654 C 396.66 153.036 395.55 150.942 393.879 149.622 C 391.494 147.729 387.234 147.897 387.234 147.897 L 374.502 148.14 L 374.502 175.77 L 380.148 175.77 L 380.148 151.833 L 380.148 151.833 Z" style="fill: rgb(255, 255, 255);"/>
    <path id="path806" d="M 321.372 142.917 L 315.684 142.917 L 315.684 169.617 C 315.684 169.617 315.819 172.053 315.96 172.902 C 316.098 173.763 317.337 175.812 320.595 175.812 L 326.487 175.686 L 326.487 172.26 C 326.487 172.26 324.888 172.38 323.922 172.38 C 322.962 172.38 321.774 172.308 321.567 170.655 C 321.369 169.023 321.369 167.049 321.369 167.049 L 321.369 151.326 L 327.762 151.326 L 327.762 147.9 L 321.369 147.9 L 321.369 142.917 L 321.372 142.917 Z" style="fill: rgb(255, 255, 255);"/>
    <path id="path808" d="M 207.624 157.122 C 207.624 155.214 207.135 154.035 206.358 153.039 C 205.527 151.992 203.811 151.599 202.353 151.599 L 194.862 151.836 L 194.862 148.146 L 203.883 147.903 C 203.883 147.903 208.146 147.735 210.531 149.628 C 212.19 150.945 213.306 153.042 213.306 156.66 L 213.306 175.512 L 202.419 175.746 C 202.419 175.746 197.484 175.77 195.009 174.756 C 192.585 173.772 191.265 171.069 191.265 167.325 C 191.265 163.71 192.378 161.598 194.04 160.278 C 196.428 158.391 200.682 158.574 200.682 158.574 L 204.162 158.574 L 204.162 161.799 L 202.209 161.799 C 200.754 161.799 199.251 162.069 198.423 163.107 C 197.637 164.106 197.223 164.958 197.223 166.866 C 197.223 169.365 197.709 170.487 198.885 171.339 C 199.923 172.095 201.786 172.26 203.871 172.26 L 207.624 172.026 L 207.624 157.122 L 207.624 157.122 Z" style="fill: rgb(255, 255, 255);"/>
    <path id="path810" d="M 303.381 157.122 C 303.381 155.214 302.904 154.035 302.124 153.039 C 301.287 151.992 299.577 151.599 298.122 151.599 L 290.637 151.836 L 290.637 148.146 L 299.64 147.903 C 299.64 147.903 303.906 147.735 306.291 149.628 C 307.953 150.945 309.057 153.042 309.057 156.66 L 309.057 175.512 L 298.185 175.746 C 298.185 175.746 293.25 175.77 290.763 174.756 C 288.351 173.772 287.025 171.069 287.025 167.325 C 287.025 163.71 288.144 161.598 289.797 160.278 C 292.185 158.391 296.451 158.574 296.451 158.574 L 299.919 158.574 L 299.919 161.799 L 297.969 161.799 C 296.523 161.799 295.005 162.069 294.18 163.107 C 293.403 164.106 292.98 164.958 292.98 166.866 C 292.98 169.365 293.478 170.487 294.642 171.339 C 295.68 172.095 297.552 172.26 299.631 172.26 L 303.381 172.026 L 303.381 157.122 L 303.381 157.122 Z" style="fill: rgb(255, 255, 255);"/>
    <path id="path816" d="M 447.603 144.129 C 447.675 148.323 447.471 150.531 446.061 152.628 C 444.819 154.473 442.359 156.153 436.923 156.153 L 430.179 155.955 C 429.111 155.973 426.36 156.285 425.055 157.68 C 423.939 158.886 423.852 159.789 423.738 162.999 L 423.738 172.416 L 446.661 172.416 L 446.661 177.027 L 421.602 177.027 L 420.399 177.018 C 418.695 177.018 417.021 175.863 417.021 173.55 L 417.021 166.527 C 417.141 158.322 417.729 157.146 419.511 154.995 C 420.747 153.507 423.651 151.842 427.173 151.665 C 427.866 151.635 429.168 151.545 430.998 151.596 C 432.33 151.656 433.662 151.692 434.247 151.704 C 437.37 151.734 438.507 151.158 439.362 150.042 C 440.337 148.782 440.862 147.294 440.862 144.858 C 440.862 142.578 440.394 140.427 439.524 139.428 C 438.471 138.273 437.463 137.499 434.532 137.499 C 427.116 137.481 418.464 137.676 418.464 137.676 L 418.464 133.32 C 418.464 133.32 426.921 132.96 435.546 132.834 C 440.916 132.741 443.877 134.169 445.383 136.134 C 446.973 138.18 447.531 140.115 447.603 144.129 L 447.603 144.129 Z" style="fill: rgb(255, 255, 255);"/>
    <polygon points="592.596 7.395 592.596 48.036 413.076 48.036 413.076 103.464 600 103.464 600 96.072 420.474 96.072 420.474 55.431 600 55.431 600 0 413.076 0 413.076 7.395" style="fill: rgb(255, 255, 255);"/>
    <polygon points="385.374 0 385.374 7.395 290.025 7.395 290.025 103.464 186.924 103.464 186.924 96.072 282.273 96.072 282.273 0" style="fill: rgb(255, 255, 255);"/>
    <polygon points="7.395 103.464 7.395 55.431 186.924 55.431 186.924 0 0 0 0 7.275 179.535 7.395 179.535 48.036 0 48.036 0 103.464" style="fill: rgb(255, 255, 255);"/>
  </g>
</svg>
